assets/icons/gallery_loc.svg

<svg xmlns="http://www.w3.org/2000/svg" width="204" height="193" fill="none">
  <path fill="#DFDFDF" d="m135.958 184.916-36.1481 7.712-46.9015-7.733-52.2697 7.796c28.4377-13.578 39.4651-29.133 39.4651-29.133s9.3126 2.335 25.2741-7.139l.795-.366 33.4216 10.696 30.2875-7.452 30.341 5.973 14.975-8.351L204 178.692l-33.539 13.999-34.503-7.775Z"/>
  <path fill="#E3E0E1" d="m7.997 190.336 44.9031-7.726 46.8558 7.726 36.2151-7.726 34.284 7.726 27.765-11.588s-12.434-9.836-23.057-19.494l-14.366 8.387-30.662-6.036-30.4211 7.485-33.1946-10.623s-18.473 9.962-25.3539 7.064c.0008 0-1.1119 9.595-32.9684 24.805Z"/>
  <path fill="#F6F6F6" d="M51.2268 167.946c-.8798-1.176-7.122-1.087-7.4846 1.81-.3626 2.897-6.8809 3.381-5.3117 5.432 1.5693 2.053 6.6398-1.932 9.1746 0 2.5348 1.931 5.9877-1.812 9.6935-1.811 3.7057.001 8.6223 7.243 10.5101 5.07 1.8878-2.173 10.4586 3.018 7.0789-3.138-3.3798-6.157-3.2592-6.761-3.1386-10.14.1206-3.381-4.3461-2.049-7.2427-.483-2.8974 1.566-11.3235 5.873-13.2795 3.26Z"/>
  <path fill="#DFDFDF" d="M77.9056 180.258c1.6899-1.207 2.8974-3.773 4.5873-1.403 1.6898 2.37 2.8974 1.403 2.8974 2.852 0 1.449-4.2256.363-5.7948 0-1.5685-.362-1.6899-1.449-1.6899-1.449Z"/>
  <path fill="#F6F6F6" d="M86.9595 172.412c3.6218 3.139 3.117 2.409 7.8465 3.559 4.7295 1.151 1.7422-.241 7.33-1.779 5.587-1.539 14.158-6.367 5.105-4.919-9.0544 1.449-11.5893.914-13.2791-.267-1.6899-1.181-3.1386-.147-6.2772 0-3.1394.146-.7252 3.406-.7252 3.406Zm38.8715 7.75c3.38-2.197 8.813-4.735 11.589-4.191 2.776.545 1.448.062 10.382.424 8.933.362 11.709.542 16.659-1.6 4.95-2.143 5.191-2.625 7.243-5.522 2.052-2.898 8.105-4.588 2.06-3.743-6.044.845-4.958 1.002-10.752 2.916-5.795 1.914-3.38 4.073-9.658 2.511-6.277-1.563-8.209.127-12.555-1.926-4.346-2.052-8.683-2.918-9.652-3.209-.971-.291-7.007 2.003-9.662 3.33-2.657 1.328-7.183 6.636-10.292 6.819-3.108.183-4.074-.09-4.557 2.884-.483 2.973-2.716 8.164 4.557 4.301 7.274-3.863 7.998-9.658 10.774-6.76 2.778 2.897 3.864 3.766 3.864 3.766Z"/>
  <path fill="#1B2E36" d="m198.02 178.746-27.765 11.591-9.656-22.698 14.365-8.385c10.622 9.656 23.056 19.492 23.056 19.492Zm-131.7007-20.28-14.7432 24.373-43.5783 7.498c31.8548-15.211 32.9676-24.808 32.9676-24.808 6.8817 2.9 25.3539-7.063 25.3539-7.063Zm69.6527 24.144-36.2153 7.727-.3551-21.284.1131.037 30.4213-7.484 6.036 21.004Z" opacity=".15"/>
  <path fill="#007AFF" d="M160.346 58.5809C160.346 26.2313 134.115 0 101.778 0 69.4155 0 43.1983 26.2313 43.1983 58.5809c0 0-5.3025 34.9468 58.4327 115.3231l.162-.188c54.367-68.885 58.66-102.402 58.473-112.0755.053-1.0196.08-2.04.08-3.0596Zm-58.701 30.377c-14.8135 0-27.1308-10.6673-29.6797-24.7285-.3352-1.7573-.4965-3.5827-.4965-5.4339 0-3.8505.7243-7.5138 2.0392-10.8952 4.361-11.2836 15.3228-19.2672 28.137-19.2672 16.65 0 30.162 13.4982 30.162 30.1624 0 16.6509-13.512 30.1624-30.162 30.1624Z"/>
  <path fill="#AE3B2A" d="M160.346 58.5777c0-19.5408-9.576-36.8346-24.281-47.4761 5.068 7.6219 8.863 16.1985 10.085 25.3007.7 5.221.527 10.5459-.628 15.6895a44.313 44.313 0 0 1-2.542 7.839c-.929 2.1539-2.008 4.2238-3.525 6.026-2.927 3.4729-6.816 5.5586-11.038 6.7171-5.023 9.6727-15.124 16.2833-26.777 16.2833-8.2802 0-15.7782-3.3373-21.2287-8.7371-.0649.7518-.1697 1.4978-.4133 2.2279-.3909 1.1701-1.0105 2.1082-2.0974 2.7095-.8965.4965-1.9319.6911-2.9099.9589-.9297.2544-1.8978.5946-2.4059 1.4728-.6229 1.0753-1.0079 2.2978-1.1784 3.5253-.736 5.2958 1.4678 10.5345 1.4462 15.8265-.0166 4.024-1.8678 8.236-4.6438 11.138-1.0271 1.074-2.2313 1.921-3.5378 2.563 8.5716 14.724 20.4698 32.374 36.962 53.267l.153-.19c54.379-68.887 58.664-102.3974 58.48-112.0809a56.695 56.695 0 0 0 .08-3.0604Z" opacity=".35"/>
</svg>

<svg width="204" height="193" viewBox="0 0 204 193" fill="none" xmlns="http://www.w3.org/2000/svg">
<path d="M135.958 184.916L99.8099 192.628L52.9084 184.895L0.638733 192.691C29.0764 179.113 40.1038 163.558 40.1038 163.558C40.1038 163.558 49.4164 165.893 65.3779 156.419L66.1729 156.053L99.5945 166.749L129.882 159.297L160.223 165.27L175.198 156.919L204 178.692L170.461 192.691L135.958 184.916Z" fill="#DFDFDF"/>
<path d="M7.99701 190.336L52.9001 182.61L99.7559 190.336L135.971 182.61L170.255 190.336L198.02 178.748C198.02 178.748 185.586 168.912 174.963 159.254L160.597 167.641L129.935 161.605L99.5139 169.09L66.3193 158.467C66.3193 158.467 47.8463 168.429 40.9654 165.531C40.9662 165.531 39.8535 175.126 7.99701 190.336Z" fill="#E3E0E1"/>
<path d="M51.2268 167.946C50.347 166.77 44.1048 166.859 43.7422 169.756C43.3796 172.653 36.8613 173.137 38.4305 175.188C39.9998 177.241 45.0703 173.256 47.6051 175.188C50.1399 177.119 53.5928 173.376 57.2986 173.377C61.0043 173.378 65.9209 180.62 67.8087 178.447C69.6965 176.274 78.2673 181.465 74.8876 175.309C71.5078 169.152 71.6284 168.548 71.749 165.169C71.8696 161.788 67.4029 163.12 64.5063 164.686C61.6089 166.252 53.1828 170.559 51.2268 167.946Z" fill="#F6F6F6"/>
<path d="M77.9056 180.258C79.5955 179.051 80.803 176.485 82.4929 178.855C84.1827 181.225 85.3903 180.258 85.3903 181.707C85.3903 183.156 81.1647 182.07 79.5955 181.707C78.027 181.345 77.9056 180.258 77.9056 180.258Z" fill="#DFDFDF"/>
<path d="M86.9595 172.412C90.5813 175.551 90.0765 174.821 94.806 175.971C99.5355 177.122 96.5482 175.73 102.136 174.192C107.723 172.653 116.294 167.825 107.241 169.273C98.1866 170.722 95.6517 170.187 93.9619 169.006C92.272 167.825 90.8233 168.859 87.6847 169.006C84.5453 169.152 86.9595 172.412 86.9595 172.412ZM125.831 180.162C129.211 177.965 134.644 175.427 137.42 175.971C140.196 176.516 138.868 176.033 147.802 176.395C156.735 176.757 159.511 176.937 164.461 174.795C169.411 172.652 169.652 172.17 171.704 169.273C173.756 166.375 179.809 164.685 173.764 165.53C167.72 166.375 168.806 166.532 163.012 168.446C157.217 170.36 159.632 172.519 153.354 170.957C147.077 169.394 145.145 171.084 140.799 169.031C136.453 166.979 132.116 166.113 131.147 165.822C130.176 165.531 124.14 167.825 121.485 169.152C118.828 170.48 114.302 175.788 111.193 175.971C108.085 176.154 107.119 175.881 106.636 178.855C106.153 181.828 103.92 187.019 111.193 183.156C118.467 179.293 119.191 173.498 121.967 176.396C124.745 179.293 125.831 180.162 125.831 180.162Z" fill="#F6F6F6"/>
<path opacity="0.15" d="M198.02 178.746L170.255 190.337L160.599 167.639L174.964 159.254C185.586 168.91 198.02 178.746 198.02 178.746ZM66.3193 158.466L51.5761 182.839L7.99783 190.337C39.8526 175.126 40.9654 165.529 40.9654 165.529C47.8471 168.429 66.3193 158.466 66.3193 158.466ZM135.972 182.61L99.7567 190.337L99.4016 169.053L99.5147 169.09L129.936 161.606L135.972 182.61Z" fill="#1B2E36"/>
<path d="M160.346 58.5809C160.346 26.2313 134.115 0 101.778 0C69.4155 0 43.1983 26.2313 43.1983 58.5809C43.1983 58.5809 37.8958 93.5277 101.631 173.904L101.793 173.716C156.16 104.831 160.453 71.314 160.266 61.6405C160.319 60.6209 160.346 59.6005 160.346 58.5809ZM101.645 88.9579C86.8315 88.9579 74.5142 78.2906 71.9653 64.2294C71.6301 62.4721 71.4688 60.6467 71.4688 58.7955C71.4688 54.945 72.1931 51.2817 73.508 47.9003C77.869 36.6167 88.8308 28.6331 101.645 28.6331C118.295 28.6331 131.807 42.1313 131.807 58.7955C131.807 75.4464 118.295 88.9579 101.645 88.9579Z" fill="#007AFF"/>
<path opacity="0.35" d="M160.346 58.5777C160.346 39.0369 150.77 21.7431 136.065 11.1016C141.133 18.7235 144.928 27.3001 146.15 36.4023C146.85 41.6233 146.677 46.9482 145.522 52.0918C144.92 54.7781 144.069 57.4024 142.98 59.9308C142.051 62.0847 140.972 64.1546 139.455 65.9568C136.528 69.4297 132.639 71.5154 128.417 72.6739C123.394 82.3466 113.293 88.9572 101.64 88.9572C93.3598 88.9572 85.8618 85.6199 80.4113 80.2201C80.3464 80.9719 80.2416 81.7179 79.998 82.448C79.6071 83.6181 78.9875 84.5562 77.9006 85.1575C77.0041 85.654 75.9687 85.8486 74.9907 86.1164C74.061 86.3708 73.0929 86.711 72.5848 87.5892C71.9619 88.6645 71.5769 89.887 71.4064 91.1145C70.6704 96.4103 72.8742 101.649 72.8526 106.941C72.836 110.965 70.9848 115.177 68.2088 118.079C67.1817 119.153 65.9775 120 64.671 120.642C73.2426 135.366 85.1408 153.016 101.633 173.909L101.786 173.719C156.165 104.832 160.45 71.3216 160.266 61.6381C160.321 60.6194 160.346 59.6015 160.346 58.5777Z" fill="#AE3B2A"/>
</svg>
